packages/ffe-icons/icons/filled/lg/screenshot_frame.svg

<svg xmlns="http://www.w3.org/2000/svg" height="40" viewBox="0 -960 960 960" width="40"><path d="M245.007-684.872q-10.75 0-17.878-7.214-7.128-7.215-7.128-17.913v-87.436q0-25.788 18.388-44.176t44.176-18.388h87.436q10.698 0 17.913 7.25 7.214 7.249 7.214 17.999t-7.214 17.878q-7.215 7.128-17.913 7.128h-87.436q-4.616 0-8.462 3.847-3.847 3.846-3.847 8.462v87.436q0 10.698-7.249 17.913-7.25 7.214-18 7.214Zm37.558 584.871q-25.788 0-44.176-18.388t-18.388-44.176v-87.436q0-10.698 7.25-17.913 7.249-7.214 17.999-7.214t17.878 7.214q7.128 7.215 7.128 17.913v87.436q0 4.616 3.847 8.462 3.846 3.847 8.462 3.847h87.436q10.698 0 17.913 7.249 7.214 7.25 7.214 18t-7.214 17.878q-7.215 7.128-17.913 7.128h-87.436ZM714.75-684.872q-10.75 0-17.878-7.214-7.128-7.215-7.128-17.913v-87.436q0-4.616-3.847-8.462-3.846-3.847-8.462-3.847h-87.436q-10.698 0-17.913-7.249-7.214-7.25-7.214-17.999 0-10.751 7.214-17.879 7.215-7.128 17.913-7.128h87.436q25.788 0 44.176 18.388t18.388 44.176v87.436q0 10.698-7.25 17.913-7.249 7.214-17.999 7.214ZM589.999-100.001q-10.698 0-17.913-7.25-7.214-7.249-7.214-17.999t7.214-17.878q7.215-7.128 17.913-7.128h87.436q4.616 0 8.462-3.847 3.847-3.846 3.847-8.462v-87.436q0-10.698 7.249-17.913 7.25-7.214 17.999-7.214 10.751 0 17.879 7.214 7.128 7.215 7.128 17.913v87.436q0 25.788-18.388 44.176t-44.176 18.388h-87.436Z"/></svg>

<svg xmlns="http://www.w3.org/2000/svg" viewBox="0 -960 960 960" width="32" height="32"><path d="M245.01-684.87q-10.75 0-17.88-7.22Q220-699.3 220-710v-87.43q0-25.79 18.39-44.18T282.57-860H370q10.7 0 17.91 7.25 7.22 7.25 7.22 18t-7.22 17.88q-7.21 7.13-17.91 7.13h-87.43q-4.62 0-8.47 3.84-3.84 3.85-3.84 8.47V-710q0 10.7-7.25 17.91-7.25 7.22-18 7.22ZM282.57-100q-25.79 0-44.18-18.39T220-162.57V-250q0-10.7 7.25-17.91 7.25-7.22 18-7.22t17.88 7.22q7.13 7.21 7.13 17.91v87.43q0 4.62 3.84 8.47 3.85 3.84 8.47 3.84H370q10.7 0 17.91 7.25 7.22 7.25 7.22 18t-7.22 17.88Q380.7-100 370-100h-87.43Zm432.18-584.87q-10.75 0-17.88-7.22-7.13-7.21-7.13-17.91v-87.43q0-4.62-3.84-8.47-3.85-3.84-8.47-3.84H590q-10.7 0-17.91-7.25-7.22-7.25-7.22-18t7.22-17.88Q579.3-860 590-860h87.43q25.79 0 44.18 18.39T740-797.43V-710q0 10.7-7.25 17.91-7.25 7.22-18 7.22ZM590-100q-10.7 0-17.91-7.25-7.22-7.25-7.22-18t7.22-17.88q7.21-7.13 17.91-7.13h87.43q4.62 0 8.47-3.84 3.84-3.85 3.84-8.47V-250q0-10.7 7.25-17.91 7.25-7.22 18-7.22t17.88 7.22Q740-260.7 740-250v87.43q0 25.79-18.39 44.18T677.43-100H590Z"/></svg>
